X: 13120
T: First And Last
R: reel
M: 4/4
K: Dmajor
D2 FD FAdA|BAdA BAdA|D2 FD FAdf|gfeg fedB|
D2 FD FAdA|BAdA BAdf|g2 ge f2 fd|fgfe B2 A2:|
|:d2 fd Adfa|gefd edbc|d2 fd Adfa|gAfA eAfA|
d2 fd e2 ge|f2 af g2 bg|agfa gfeg|fedc d4:|

